X: 1713
T: Mile End Assembly
C:trad English (c.1650)
B: australian traditional tunes wiki
M:6/8
L:1/8
R: Jig
Q: 3/8=100
K:F
V:1 
f/e/|"F"f2cA2G|FAGF2f|a>ba "Gm"g2f|"C"efg cfg|"Bb7"afd "C"gec|"Dm7"gdc =Bgf|"C"e>fg "G"Gc=B|"C"c2CC2:|
|:g/f/|"C"e2gc2a/g/|"Bb7"f2a d2b|"Am7"agf ed^c|"G"d2dd2f/e/|"Bb7"dfb "Am7"cea|"Gm"Bdg"F"F2f/e/|"Bb7"d>ef "C"cfe|"F"f3f2:|
% abcbook-tune_id 6342d53afd7b94f730eacb5c


% abcbook-boost 0
% abcbook-tablature 
% abcbook-transpose 
% abcbook-lastupdated 1665324379607
% abcbook-soundfonts 
% abcbook-repeats 1
% NFF Book 2022
% Bush Traditions recording played by Phillip's Dog and the Whoots

